Yaru++/emotes/16/face-sad.svg

<svg height="16" width="16" xmlns="http://www.w3.org/2000/svg"><g stroke-width="1.144774"><path d="m8.0000002.54555562a8.0134156 8.0134156 0 0 0 -8.0000002 7.78982698 8.0134156 8.0134156 0 0 0 8.0000002 7.6646174 8.0134156 8.0134156 0 0 0 7.9999998-7.789827 8.0134156 8.0134156 0 0 0 -7.9999998-7.66461738zm-2.2895473 4.00670778c.6399285 0 1.1805478.5417642 1.1805478 1.1805479v1.1089994.5723869c0 .6387837-.5395282 1.1447736-1.1783119 1.1447736-.6410733 0-1.1447737-.5059899-1.1447737-1.1447736v-.5723869-1.1089994c-.0011448-.6387837.5014646-1.1805479 1.1425378-1.1805479zm4.5790951 0c.639928 0 1.144773.5417642 1.144773 1.1805479v1.1089994.5723869c0 .6387837-.504845 1.1447736-1.144773 1.1447736-.638784 0-1.144774-.5059899-1.144774-1.1447736v-.5723869-1.1089994c0-.6387837.50599-1.1805479 1.144774-1.1805479zm-2.2895478 4.6238124c3.7273828 0 5.7238678.9974382 5.7238678 1.6076012v.572387.572387c-1.140194-.729221-4.59741-1.050865-5.7238678-1.050865-1.1253125 0-4.354719-.05727-5.7238683 1.050865v-.572387-.572387c0-.77959 1.9964853-1.6076012 5.7238683-1.6076012z" fill="#fdc92b"/><path d="m8.0000002.54555562a8.0134156 8.0134156 0 0 0 -8.0000002 7.78982698 8.0134156 8.0134156 0 0 0 .0201229.2079374 8.0134156 8.0134156 0 0 1 7.9798773-7.4253776 8.0134156 8.0134156 0 0 1 7.9798768 7.4566801 8.0134156 8.0134156 0 0 0 .020123-.3644495 8.0134156 8.0134156 0 0 0 -7.9999998-7.66461738zm-3.432085 6.86864198v.5723868c0 .6387837.5037004 1.1447737 1.1447737 1.1447737.6387837 0 1.1783118-.50599 1.1783118-1.1447737v-.5723868c0 .6387837-.5395281 1.1447736-1.1783118 1.1447736-.6410733 0-1.1447737-.5059899-1.1447737-1.1447736zm4.5768588 0v.5723868c0 .6387837.50599 1.1447737 1.144774 1.1447737.639928 0 1.144773-.50599 1.144773-1.1447737v-.5723868c0 .6387837-.504845 1.1447736-1.144773 1.1447736-.638784 0-1.144774-.5059899-1.144774-1.1447736zm-1.1447738 3.4633884c-1.1253124 0-4.3547188-.05727-5.7238683 1.050865v.572387c1.3691495-1.108139 4.5985559-1.050866 5.7238683-1.050866 1.1264578 0 4.5836738.321645 5.7238678 1.050866v-.572387c-1.140194-.729221-4.59741-1.050865-5.7238678-1.050865z" fill="#fff" opacity=".3"/><path d="m5.7104529 3.9798766c-.6410732 0-1.1436824.5417641-1.1425377 1.1805478v.5723869c-.00114-.6387837.5014645-1.1805479 1.1425377-1.1805479.6399286 0 1.1805478.5417642 1.1805478 1.1805479v-.5723869c0-.6387837-.5406192-1.1805478-1.1805478-1.1805478zm4.5790951 0c-.638784 0-1.144774.5417641-1.144774 1.1805478v.5723869c0-.6387837.50599-1.1805479 1.144774-1.1805479.639928 0 1.144773.5417642 1.144773 1.1805479v-.5723869c0-.6387837-.504845-1.1805478-1.144773-1.1805478zm-10.2694251 3.9910566a8.0134156 8.0134156 0 0 0 -.0201229.3644494 8.0134156 8.0134156 0 0 0 8.0000002 7.6646174 8.0134156 8.0134156 0 0 0 7.9999998-7.789827 8.0134156 8.0134156 0 0 0 -.020123-.2079374 8.0134156 8.0134156 0 0 1 -7.9798768 7.4253774 8.0134156 8.0134156 0 0 1 -7.9798773-7.4566798zm7.9798773.6327557c-3.7273829 0-5.7238683.8280117-5.7238683 1.6076021v.572386c0-.77959 1.9964854-1.6076012 5.7238683-1.6076012 3.7273828 0 5.7238678.9974382 5.7238678 1.6076012v-.572386c0-.6101639-1.996485-1.6076021-5.7238678-1.6076021z" opacity=".2"/></g></svg>

<?xml version="1.0" encoding="UTF-8" standalone="no"?>
<svg
   xmlns:dc="http://purl.org/dc/elements/1.1/"
   xmlns:cc="http://creativecommons.org/ns#"
   xmlns:rdf="http://www.w3.org/1999/02/22-rdf-syntax-ns#"
   xmlns:svg="http://www.w3.org/2000/svg"
   xmlns="http://www.w3.org/2000/svg"
   xmlns:sodipodi="http://sodipodi.sourceforge.net/DTD/sodipodi-0.dtd"
   xmlns:inkscape="http://www.inkscape.org/namespaces/inkscape"
   width="16"
   height="16"
   version="1.1"
   id="svg4"
   sodipodi:docname="face-sad.svg"
   inkscape:version="0.92.4 (5da689c313, 2019-01-14)">
  <metadata
     id="metadata10">
    <rdf:RDF>
      <cc:Work
         rdf:about="">
        <dc:format>image/svg+xml</dc:format>
        <dc:type
           rdf:resource="http://purl.org/dc/dcmitype/StillImage" />
      </cc:Work>
    </rdf:RDF>
  </metadata>
  <defs
     id="defs8" />
  <sodipodi:namedview
     pagecolor="#ffffff"
     bordercolor="#666666"
     borderopacity="1"
     objecttolerance="10"
     gridtolerance="10"
     guidetolerance="10"
     inkscape:pageopacity="0"
     inkscape:pageshadow="2"
     inkscape:window-width="1225"
     inkscape:window-height="738"
     id="namedview6"
     showgrid="false"
     inkscape:zoom="14.75"
     inkscape:cx="-3.7734091"
     inkscape:cy="8"
     inkscape:window-x="316"
     inkscape:window-y="146"
     inkscape:window-maximized="0"
     inkscape:current-layer="svg4" />
  <path
     style="fill:#fdc92b;fill-opacity:1;stroke-width:1.1447736"
     d="M 8.0000002,0.54555562 A 8.0134156,8.0134156 0 0 0 0,8.3353826 8.0134156,8.0134156 0 0 0 8.0000002,16 8.0134156,8.0134156 0 0 0 16,8.210173 8.0134156,8.0134156 0 0 0 8.0000002,0.54555562 Z M 5.7104529,4.5522634 c 0.6399285,0 1.1805478,0.5417642 1.1805478,1.1805479 v 1.1089994 0.5723869 c 0,0.6387837 -0.5395282,1.1447736 -1.1783119,1.1447736 -0.6410733,0 -1.1447737,-0.5059899 -1.1447737,-1.1447736 V 6.8418107 5.7328113 C 4.5667703,5.0940276 5.0693797,4.5522634 5.7104529,4.5522634 Z m 4.5790951,0 c 0.639928,0 1.144773,0.5417642 1.144773,1.1805479 v 1.1089994 0.5723869 c 0,0.6387837 -0.504845,1.1447736 -1.144773,1.1447736 -0.638784,0 -1.144774,-0.5059899 -1.144774,-1.1447736 V 6.8418107 5.7328113 c 0,-0.6387837 0.50599,-1.1805479 1.144774,-1.1805479 z M 8.0000002,9.1760758 c 3.7273828,0 5.7238678,0.9974382 5.7238678,1.6076012 v 0.572387 0.572387 c -1.140194,-0.729221 -4.59741,-1.050865 -5.7238678,-1.050865 -1.1253125,0 -4.354719,-0.05727 -5.7238683,1.050865 v -0.572387 -0.572387 c 0,-0.77959 1.9964853,-1.6076012 5.7238683,-1.6076012 z"
     id="path2"
     inkscape:connector-curvature="0" />
  <path
     style="opacity:0.3;fill:#ffffff;fill-opacity:1;stroke-width:1.1447736"
     d="M 8.0000002,0.54555562 A 8.0134156,8.0134156 0 0 0 0,8.3353826 8.0134156,8.0134156 0 0 0 0.0201229,8.54332 8.0134156,8.0134156 0 0 1 8.0000002,1.1179424 8.0134156,8.0134156 0 0 1 15.979877,8.5746225 8.0134156,8.0134156 0 0 0 16,8.210173 8.0134156,8.0134156 0 0 0 8.0000002,0.54555562 Z M 4.5679152,7.4141976 v 0.5723868 c 0,0.6387837 0.5037004,1.1447737 1.1447737,1.1447737 0.6387837,0 1.1783118,-0.50599 1.1783118,-1.1447737 V 7.4141976 c 0,0.6387837 -0.5395281,1.1447736 -1.1783118,1.1447736 -0.6410733,0 -1.1447737,-0.5059899 -1.1447737,-1.1447736 z m 4.5768588,0 v 0.5723868 c 0,0.6387837 0.50599,1.1447737 1.144774,1.1447737 0.639928,0 1.144773,-0.50599 1.144773,-1.1447737 V 7.4141976 c 0,0.6387837 -0.504845,1.1447736 -1.144773,1.1447736 -0.638784,0 -1.144774,-0.5059899 -1.144774,-1.1447736 z M 8.0000002,10.877586 c -1.1253124,0 -4.3547188,-0.05727 -5.7238683,1.050865 v 0.572387 c 1.3691495,-1.108139 4.5985559,-1.050866 5.7238683,-1.050866 1.1264578,0 4.5836738,0.321645 5.7238678,1.050866 V 11.928451 C 12.583674,11.19923 9.126458,10.877586 8.0000002,10.877586 Z"
     id="path838"
     inkscape:connector-curvature="0" />
  <path
     style="opacity:0.2;fill:#000000;fill-opacity:1;stroke-width:1.1447736"
     d="m 5.7104529,3.9798766 c -0.6410732,0 -1.1436824,0.5417641 -1.1425377,1.1805478 v 0.5723869 c -0.00114,-0.6387837 0.5014645,-1.1805479 1.1425377,-1.1805479 0.6399286,0 1.1805478,0.5417642 1.1805478,1.1805479 V 5.1604244 c 0,-0.6387837 -0.5406192,-1.1805478 -1.1805478,-1.1805478 z m 4.5790951,0 c -0.638784,0 -1.144774,0.5417641 -1.144774,1.1805478 v 0.5723869 c 0,-0.6387837 0.50599,-1.1805479 1.144774,-1.1805479 0.639928,0 1.144773,0.5417642 1.144773,1.1805479 V 5.1604244 c 0,-0.6387837 -0.504845,-1.1805478 -1.144773,-1.1805478 z M 0.0201229,7.9709332 A 8.0134156,8.0134156 0 0 0 0,8.3353826 8.0134156,8.0134156 0 0 0 8.0000002,16 8.0134156,8.0134156 0 0 0 16,8.210173 8.0134156,8.0134156 0 0 0 15.979877,8.0022356 8.0134156,8.0134156 0 0 1 8.0000002,15.427613 8.0134156,8.0134156 0 0 1 0.0201229,7.9709332 Z m 7.9798773,0.6327557 c -3.7273829,0 -5.7238683,0.8280117 -5.7238683,1.6076021 v 0.572386 c 0,-0.77959 1.9964854,-1.6076012 5.7238683,-1.6076012 3.7273828,0 5.7238678,0.9974382 5.7238678,1.6076012 v -0.572386 c 0,-0.6101639 -1.996485,-1.6076021 -5.7238678,-1.6076021 z"
     id="path843"
     inkscape:connector-curvature="0" />
</svg>
